src/main/resources/img/expui/window/DatabaseCompanion.svg

<svg width="16" height="16" version="1.1" viewBox="0 0 16 16"  xmlns="http://www.w3.org/2000/svg"><path d="m6.5 2c-1.9508-3.34e-5 -5.5 0.28974-5.5 2v8.9902c0 1.5127 3.125 2.0129 5.5 2.0098 2.375-0.003174 5.5-0.5 5.5-2v-2.1055a2.5002 2.5002 0 0 1-1.9297-0.37109c-0.81992 0.27068-2.1072 0.47656-3.5703 0.47656-2.5 0-4.5-0.59961-4.5-1.0996v-1.7051s1 0.80469 4.5 0.80469c1.0587 0 1.8846-0.073175 2.5273-0.17578a2.5002 2.5002 0 0 1-0.042969-0.32422c0-0.12012-0.08518-0.39077-0.26367-0.66602-0.65411 0.10221-1.4105 0.16602-2.2207 0.16602-2.5 0-4.5-0.59961-4.5-1.0996v-1.7051s0.81706 0.64889 3.5293 0.7793a2.5002 2.5002 0 0 1-0.43945-1.0215c-1.7938-0.12092-3.0898-0.47217-3.0898-0.95312 0-0.51973 1.5134-0.88891 3.5332-0.97852a2.5002 2.5002 0 0 1 1.8047-1c-0.29854-0.0155-0.58257-0.02148-0.83789-0.021484zm-4.5 9.1992s1 0.80469 4.5 0.80469 4.5-0.80469 4.5-0.80469v1.7012c0 0.5-2 1.0996-4.5 1.0996s-4.5-0.59961-4.5-1.0996v-1.7012z" fill="#6c707e"/><path d="m11.5-0.0078125a0.50005 0.50005 0 0 0-0.5 0.49219c0 0.84242-0.43187 1.737-1.1016 2.4102-0.66969 0.67318-1.5586 1.1055-2.3828 1.1055a0.50005 0.50005 0 0 0 0 1c0.82527 0 1.7133 0.43204 2.3828 1.1035 0.66953 0.67148 1.1016 1.563 1.1016 2.3965a0.50005 0.50005 0 0 0 1 0c0-0.85846 0.43186-1.7451 1.1035-2.4102 0.67165-0.66509 1.5661-1.0898 2.4121-1.0898a0.50005 0.50005 0 0 0 0-1c-0.84138 0-1.7369-0.43244-2.4102-1.1055-0.67324-0.67303-1.1055-1.5679-1.1055-2.4102a0.50005 0.50005 0 0 0-0.5-0.49219zm2e-3 2.3379c0.23867 0.46124 0.52712 0.90223 0.89648 1.2715 0.36776 0.36765 0.80871 0.65637 1.2676 0.89453-0.45845 0.23431-0.89769 0.51847-1.2656 0.88281-0.3724 0.36876-0.6669 0.81048-0.90625 1.2754-0.23721-0.45512-0.52246-0.89244-0.88677-1.2578-0.36755-0.36862-0.80556-0.65799-1.2637-0.89648 0.45762-0.23876 0.89439-0.52919 1.2617-0.89844 0.36751-0.36942 0.65859-0.81008 0.89648-1.2715z" color="#000000" fill="#ffaf0f" stroke-linecap="round" stroke-linejoin="round"/></svg>

<svg width="16" height="16" xmlns="http://www.w3.org/2000/svg" fill="none"><path d="M11.5-.008a.5.5 0 0 0-.5.492c0 .843-.432 1.737-1.102 2.41C9.228 3.569 8.34 4 7.516 4a.5.5 0 0 0 0 1c.825 0 1.713.432 2.382 1.104C10.568 6.775 11 7.667 11 8.5a.5.5 0 0 0 1 0c0-.858.432-1.745 1.103-2.41C13.776 5.425 14.67 5 15.517 5a.5.5 0 0 0 0-1c-.842 0-1.737-.432-2.41-1.105C12.431 2.222 12 1.327 12 .485a.5.5 0 0 0-.5-.493zM6.5 2C4.55 2 1 2.29 1 4v8.99c0 1.513 3.125 2.013 5.5 2.01 2.375-.003 5.5-.5 5.5-2v-2.106a2.5 2.5 0 0 1-1.93-.37c-.82.27-2.107.476-3.57.476C4 11 2 10.4 2 9.9V8.195S3 9 6.5 9c1.059 0 1.885-.073 2.527-.176a2.5 2.5 0 0 1-.043-.324c0-.12-.085-.39-.263-.666C8.067 7.936 7.31 8 6.5 8 4 8 2 7.4 2 6.9V5.195s.817.65 3.53.78a2.5 2.5 0 0 1-.44-1.022C3.296 4.833 2 4.481 2 4c0-.52 1.513-.889 3.533-.979a2.5 2.5 0 0 1 1.805-1A16.26 16.26 0 0 0 6.5 2zm5.002.33c.239.461.527.902.896 1.272.368.367.81.656 1.268.894-.458.234-.898.519-1.266.883-.372.369-.666.81-.906 1.275-.237-.455-.522-.892-.886-1.257A5.076 5.076 0 0 0 9.344 4.5a5.07 5.07 0 0 0 1.262-.898c.367-.37.658-.81.896-1.272zM2 11.2s1 .804 4.5.804 4.5-.805 4.5-.805V12.9c0 .5-2 1.1-4.5 1.1S2 13.4 2 12.9v-1.7z" fill="#6C707E"/></svg>
